public/assets/icons/brain-health.svg

<svg height="46" viewBox="0 0 46 46" width="46" xmlns="http://www.w3.org/2000/svg"><path d="m44.307 22.61c-.738 0-1.383-.547-1.484-1.3-1.331-9.883-9.852-17.335-19.823-17.335s-18.492 7.452-19.822 17.335c-.109.82-.857 1.405-1.687 1.286-.821-.11-1.396-.865-1.286-1.687 1.528-11.364 11.328-19.934 22.795-19.934s21.268 8.57 22.795 19.935c.111.821-.465 1.576-1.285 1.687-.069.009-.137.013-.203.013zm1.488 4.48c.111-.82-.465-1.576-1.285-1.686-.828-.117-1.578.465-1.688 1.285-1.33 9.883-9.851 17.336-19.822 17.336s-18.492-7.453-19.822-17.336c-.109-.82-.857-1.404-1.687-1.285-.821.109-1.396.865-1.286 1.686 1.528 11.365 11.328 19.935 22.795 19.935s21.268-8.57 22.795-19.935zm-24.212 12.375c.154-.814-.381-1.6-1.194-1.754-6.593-1.248-11.378-7.014-11.378-13.711 0-6.696 4.785-12.463 11.378-13.712.813-.154 1.349-.938 1.194-1.753-.153-.814-.937-1.348-1.753-1.194-8.007 1.517-13.819 8.523-13.819 16.659s5.812 15.142 13.819 16.658c.095.018.188.027.281.027.707.001 1.337-.501 1.472-1.22zm4.587 1.193c8.006-1.515 13.818-8.521 13.818-16.658 0-8.136-5.812-15.142-13.818-16.658-.818-.153-1.6.38-1.754 1.194s.381 1.599 1.195 1.753c6.592 1.249 11.377 7.014 11.377 13.711 0 6.698-4.785 12.463-11.377 13.711-.814.154-1.35.938-1.195 1.752.137.721.766 1.221 1.473 1.221.091 0 .185-.008.281-.026zm5.041-18.144c.777-.291 1.17-1.155.879-1.931-1.416-3.774-5.068-6.31-9.09-6.31-4.021 0-7.674 2.535-9.089 6.31-.291.775.102 1.64.878 1.931.772.293 1.64-.102 1.931-.878.979-2.609 3.502-4.362 6.28-4.362s5.303 1.753 6.282 4.362c.225.603.797.974 1.404.974.173 0 .353-.03.525-.096zm.879 4.902c.291-.775-.104-1.641-.879-1.932-.779-.293-1.641.104-1.93.879-.979 2.609-3.502 4.361-6.282 4.361-2.778 0-5.303-1.752-6.28-4.361-.29-.775-1.152-1.17-1.931-.879-.775.291-1.169 1.156-.878 1.932 1.414 3.773 5.066 6.309 9.089 6.309 4.024 0 7.677-2.536 9.091-6.309z" fill="#142b6f" transform="translate(0 -1)"/></svg>

<svg width="46px" height="46px" viewBox="0 0 46 46" version="1.1" xmlns="http://www.w3.org/2000/svg" xmlns:xlink="http://www.w3.org/1999/xlink">
    <!-- Generator: Sketch 50.2 (55047) - http://www.bohemiancoding.com/sketch -->
    <desc>Created with Sketch.</desc>
    <defs></defs>
    <g id="Page-1" stroke="none" stroke-width="1" fill="none" fill-rule="evenodd">
        <g id="Desktop" transform="translate(-835.000000, -585.000000)" fill="#142B6F" fill-rule="nonzero">
            <g id="Group-4" transform="translate(442.000000, 584.000000)">
                <g id="Group" transform="translate(348.000000, 0.000000)">
                    <g id="icon-brain" transform="translate(45.000000, 0.000000)">
                        <path d="M44.307,22.61 C43.569,22.61 42.924,22.063 42.823,21.31 C41.492,11.427 32.971,3.975 23,3.975 C13.029,3.975 4.508,11.427 3.178,21.31 C3.069,22.13 2.321,22.715 1.491,22.596 C0.67,22.486 0.095,21.731 0.205,20.909 C1.733,9.545 11.533,0.975 23,0.975 C34.467,0.975 44.268,9.545 45.795,20.91 C45.906,21.731 45.33,22.486 44.51,22.597 C44.441,22.606 44.373,22.61 44.307,22.61 Z M45.795,27.09 C45.906,26.27 45.33,25.514 44.51,25.404 C43.682,25.287 42.932,25.869 42.822,26.689 C41.492,36.572 32.971,44.025 23,44.025 C13.029,44.025 4.508,36.572 3.178,26.689 C3.069,25.869 2.321,25.285 1.491,25.404 C0.67,25.513 0.095,26.269 0.205,27.09 C1.733,38.455 11.533,47.025 23,47.025 C34.467,47.025 44.268,38.455 45.795,27.09 Z M21.583,39.465 C21.737,38.651 21.202,37.865 20.389,37.711 C13.796,36.463 9.011,30.697 9.011,24 C9.011,17.304 13.796,11.537 20.389,10.288 C21.202,10.134 21.738,9.35 21.583,8.535 C21.43,7.721 20.646,7.187 19.83,7.341 C11.823,8.858 6.011,15.864 6.011,24 C6.011,32.136 11.823,39.142 19.83,40.658 C19.925,40.676 20.018,40.685 20.111,40.685 C20.818,40.686 21.448,40.184 21.583,39.465 Z M26.17,40.658 C34.176,39.143 39.988,32.137 39.988,24 C39.988,15.864 34.176,8.858 26.17,7.342 C25.352,7.189 24.57,7.722 24.416,8.536 C24.262,9.35 24.797,10.135 25.611,10.289 C32.203,11.538 36.988,17.303 36.988,24 C36.988,30.698 32.203,36.463 25.611,37.711 C24.797,37.865 24.261,38.649 24.416,39.463 C24.553,40.184 25.182,40.684 25.889,40.684 C25.98,40.684 26.074,40.676 26.17,40.658 Z M31.211,22.514 C31.988,22.223 32.381,21.359 32.09,20.583 C30.674,16.809 27.022,14.273 23,14.273 C18.979,14.273 15.326,16.808 13.911,20.583 C13.62,21.358 14.013,22.223 14.789,22.514 C15.561,22.807 16.429,22.412 16.72,21.636 C17.699,19.027 20.222,17.274 23,17.274 C25.778,17.274 28.303,19.027 29.282,21.636 C29.507,22.239 30.079,22.61 30.686,22.61 C30.859,22.61 31.039,22.58 31.211,22.514 Z M32.09,27.416 C32.381,26.641 31.986,25.775 31.211,25.484 C30.432,25.191 29.57,25.588 29.281,26.363 C28.302,28.972 25.779,30.724 22.999,30.724 C20.221,30.724 17.696,28.972 16.719,26.363 C16.429,25.588 15.567,25.193 14.788,25.484 C14.013,25.775 13.619,26.64 13.91,27.416 C15.324,31.189 18.976,33.725 22.999,33.725 C27.023,33.725 30.676,31.189 32.09,27.416 Z" id="Shape"></path>
                    </g>
                </g>
            </g>
        </g>
    </g>
</svg>
